src/polls.svg

<?xml version="1.0" encoding="UTF-8" standalone="no"?>
<svg
   id="svg8"
   version="1.1"
   viewBox="0 0 50 50"
   height="50mm"
   width="50mm"
   xmlns="http://www.w3.org/2000/svg"
   xmlns:svg="http://www.w3.org/2000/svg"
   xmlns:rdf="http://www.w3.org/1999/02/22-rdf-syntax-ns#"
   xmlns:cc="http://creativecommons.org/ns#"
   xmlns:dc="http://purl.org/dc/elements/1.1/">
  <defs
     id="defs2" />
  <metadata
     id="metadata5">
    <rdf:RDF>
      <cc:Work
         rdf:about="">
        <dc:format>image/svg+xml</dc:format>
        <dc:type
           rdf:resource="http://purl.org/dc/dcmitype/StillImage" />
        <dc:title />
      </cc:Work>
    </rdf:RDF>
  </metadata>
  <g
     id="layer1">
    <path
       transform="scale(0.26458333)"
       d="M 89.763672 0.1171875 A 94.488186 94.488186 0 0 0 63.576172 5.1992188 L 89.763672 70.136719 L 89.763672 0.1171875 z M 99.212891 0.11914062 L 99.212891 92.767578 L 158.83789 163.67578 A 94.488186 94.488186 0 0 0 188.97656 94.488281 A 94.488186 94.488186 0 0 0 99.212891 0.11914062 z M 54.8125 8.734375 A 94.488186 94.488186 0 0 0 19.216797 37.373047 L 84.271484 81.789062 L 54.8125 8.734375 z M 13.888672 45.177734 A 94.488186 94.488186 0 0 0 0 94.488281 A 94.488186 94.488186 0 0 0 9.7695312 136.33008 L 85.515625 94.085938 L 13.888672 45.177734 z M 93.380859 100.51172 L 14.371094 144.58008 A 94.488186 94.488186 0 0 0 94.488281 188.97656 A 94.488186 94.488186 0 0 0 151.60547 169.75977 L 93.380859 100.51172 z "
       style="fill:#ffffff;fill-opacity:1;stroke:none;stroke-width:9.82677"
       id="path883" />
  </g>
</svg>

<svg xmlns="http://www.w3.org/2000/svg" width="50mm" height="50mm" viewBox="0 0 50 50"><path d="M89.764.117A94.488 94.488 0 0 0 63.576 5.2l26.188 64.938V.117zm9.449.002v92.649l59.625 70.908a94.488 94.488 0 0 0 30.139-69.188A94.488 94.488 0 0 0 99.213.12zm-44.4 8.615a94.488 94.488 0 0 0-35.596 28.639L84.27 81.789 54.812 8.734zM13.889 45.178A94.488 94.488 0 0 0 0 94.488a94.488 94.488 0 0 0 9.77 41.842l75.746-42.244-71.627-48.908zm79.492 55.334L14.37 144.58a94.488 94.488 0 0 0 80.117 44.397 94.488 94.488 0 0 0 57.117-19.217l-58.224-69.248z" style="fill:#fff;fill-opacity:1;stroke:none;stroke-width:9.82677" transform="scale(.26458)"/></svg>
